fa/svgs/regular/face-laugh-squint.svg

<svg xmlns="http://www.w3.org/2000/svg" viewBox="0 0 512 512"><!--! Font Awesome Free 6.1.1 by @fontawesome - https://fontawesome.com License - https://fontawesome.com/license/free (Icons: CC BY 4.0, Fonts: SIL OFL 1.1, Code: MIT License) Copyright 2022 Fonticons, Inc.--><path d="M130.7 313.9c-4.2-13.5 7.1-25.9 20.4-25.9h213.4c14.2 0 25.4 12.4 21.3 25.9-17.7 54.5-67.6 94.1-127.6 94.1s-110.7-39.6-127.5-94.1zm92.7-135.3c10.7 5.7 10.7 21.1 0 26.8l-89.9 47.9c-7.9 4.3-17.5-1.5-17.5-10.4 0-2.8.1-5.5 2.8-7.7l36-43.2-36-43.2c-2.7-2.2-2.8-4.9-2.8-7.7 0-8.9 9.6-14.7 17.5-10.4l89.9 47.9zm169.8-29.8-36 43.2 36 43.2c1.8 2.2 2.8 4.9 2.8 7.7 0 8.9-9.6 14.7-17.5 10.4l-89.9-47.9c-10.7-5.7-10.7-21.1 0-26.8l89.9-47.9c7.9-4.3 17.5 1.5 17.5 10.4 0 2.8-1 5.5-2.8 7.7zM512 256c0 141.4-114.6 256-256 256S0 397.4 0 256 114.6 0 256 0s256 114.6 256 256zM256 48C141.1 48 48 141.1 48 256s93.1 208 208 208 208-93.1 208-208S370.9 48 256 48z"/></svg>

<svg xmlns="http://www.w3.org/2000/svg" viewBox="0 0 512 512"><!--! Font Awesome Free 6.2.1 by @fontawesome - https://fontawesome.com License - https://fontawesome.com/license/free (Icons: CC BY 4.0, Fonts: SIL OFL 1.1, Code: MIT License) Copyright 2022 Fonticons, Inc. --><path d="M130.7 313.9C126.5 300.4 137.8 288 151.1 288H364.5C378.7 288 389.9 300.4 385.8 313.9C368.1 368.4 318.2 408 258.2 408C198.2 408 147.5 368.4 130.7 313.9V313.9zM223.4 178.6C234.1 184.3 234.1 199.7 223.4 205.4L133.5 253.3C125.6 257.6 116 251.8 116 242.9C116 240.1 116.1 237.4 118.8 235.2L154.8 192L118.8 148.8C116.1 146.6 116 143.9 116 141.1C116 132.2 125.6 126.4 133.5 130.7L223.4 178.6zM393.2 148.8L357.2 192L393.2 235.2C395 237.4 396 240.1 396 242.9C396 251.8 386.4 257.6 378.5 253.3L288.6 205.4C277.9 199.7 277.9 184.3 288.6 178.6L378.5 130.7C386.4 126.4 396 132.2 396 141.1C396 143.9 395 146.6 393.2 148.8V148.8zM512 256C512 397.4 397.4 512 256 512C114.6 512 0 397.4 0 256C0 114.6 114.6 0 256 0C397.4 0 512 114.6 512 256zM256 48C141.1 48 48 141.1 48 256C48 370.9 141.1 464 256 464C370.9 464 464 370.9 464 256C464 141.1 370.9 48 256 48z"/></svg>
